web/workspace/public/assets/icons/book-alt.svg

<svg height="30" viewBox="0 0 30 30" width="30" xmlns="http://www.w3.org/2000/svg"><path d="m3 2v26h24v-26zm4 24h-2v-22h2zm18 0h-16v-22h16zm-2-18h-12v2h12zm0 4h-12v2h12z"/></svg>

<svg xmlns="http://www.w3.org/2000/svg" width="30" height="30" viewBox="0 0 30 30"><path d="M3 2v26h24V2H3zm4 24H5V4h2v22zm18 0H9V4h16v22zM23 8H11v2h12V8zm0 4H11v2h12v-2z"/></svg>
